src/icons/up.svg

<svg id="Capa_1" enable-background="new 0 0 512.003 512.003" height="512" viewBox="0 0 512.003 512.003" width="512" xmlns="http://www.w3.org/2000/svg"><g><g><path d="m138.542 429.074h-.343c-8.254 0-14.946-6.691-14.946-14.946v-33.968c0-8.254 6.691-14.946 14.946-14.946h.343c8.254 0 14.946 6.691 14.946 14.946v33.969c0 8.254-6.692 14.945-14.946 14.945z" fill="#99e6fc"/><path d="m216.963 353.342h-.343c-8.254 0-14.946-6.691-14.946-14.946v-14.751c0-8.254 6.691-14.946 14.946-14.946h.343c8.254 0 14.946 6.691 14.946 14.946v14.751c0 8.255-6.692 14.946-14.946 14.946z" fill="#c8effe"/><path d="m216.963 504.5h-.343c-8.254 0-14.946-6.691-14.946-14.946v-87.157c0-8.254 6.691-14.946 14.946-14.946h.343c8.254 0 14.946 6.691 14.946 14.946v87.157c0 8.255-6.692 14.946-14.946 14.946z" fill="#fedf30"/><path d="m295.384 491.473h-.343c-8.254 0-14.946-6.691-14.946-14.946v-4.508c0-8.254 6.691-14.946 14.946-14.946h.343c8.254 0 14.946 6.691 14.946 14.946v4.508c0 8.255-6.692 14.946-14.946 14.946z" fill="#c8effe"/><path d="m216.963 308.7h-.343c-2.536 0-4.922.636-7.015 1.751 4.717 2.513 7.931 7.476 7.931 13.194v14.751c0 5.718-3.214 10.681-7.931 13.194 2.092 1.115 4.478 1.751 7.015 1.751h.343c8.254 0 14.946-6.691 14.946-14.946v-14.751c0-8.253-6.692-14.944-14.946-14.944z" fill="#99e6fc"/><path d="m295.384 457.074h-.343c-2.536 0-4.922.636-7.015 1.751 4.717 2.513 7.931 7.476 7.931 13.194v4.508c0 5.718-3.214 10.681-7.931 13.194 2.092 1.115 4.478 1.751 7.015 1.751h.343c8.254 0 14.946-6.691 14.946-14.946v-4.508c0-8.252-6.692-14.944-14.946-14.944z" fill="#99e6fc"/><path d="m373.805 452.071h-.343c-8.254 0-14.946-6.691-14.946-14.946v-54.199c0-8.254 6.691-14.946 14.946-14.946h.343c8.254 0 14.946 6.691 14.946 14.946v54.199c-.001 8.254-6.692 14.946-14.946 14.946z" fill="#fedf30"/><path d="m389.381 335.821-79.05-51.33-30.24-19.63-11.72-7.61c-.26-.17-.52-.34-.77-.5-3.98-2.53-7.58-3.77-11.42-3.68-3.76.08-7.76 1.46-12.56 4.18l-120.99 78.57c-17.2 6.02-33.56-.91-42.63-13.25-7.96-10.82-10.32-25.8-2.75-39.87l133.47-248.14c9.74-18.11 27.61-27.12 45.46-27.06 17.73.06 35.44 9.07 45.11 27.06l133.46 248.14c16.2 30.11-13.09 64.409-45.37 53.12z" fill="#0593fc"/><path d="m267.601 256.75c-3.98-2.53-7.58-3.77-11.42-3.68-3.76.08-7.76 1.46-12.56 4.18l-120.99 78.57c-17.2 6.02-33.56-.91-42.63-13.25 5.88.99 12.23.57 18.69-1.69l110.56-71.81c3.43-2.22 4.01-7 1.23-9.98l-8-8.56c4.8-2.72 8.8-4.1 12.56-4.18 4.08-.1 7.9 1.32 12.19 4.18z" fill="#0182fc"/><g><g><path d="m434.751 282.696-133.465-248.138c-9.67-17.984-27.371-26.996-45.102-27.057-4.909-.017-9.813.678-14.555 2.034 12.501 3.576 23.841 11.899 30.897 25.023l133.465 248.138c11.293 20.986.485 44-18.03 52.205l1.415.919c32.287 11.287 61.579-23.012 45.375-53.124z" fill="#0182fc"/></g></g><path d="m295.384 422.089h-.343c-8.254 0-14.946-6.691-14.946-14.946v-176.291c0-8.254 6.691-14.946 14.946-14.946h.343c8.254 0 14.946 6.691 14.946 14.946v176.291c0 8.254-6.692 14.946-14.946 14.946z" fill="#99e6fc"/><path d="m138.542 365.214h-.343c-2.952 0-5.697.868-8.015 2.345 4.162 2.653 6.931 7.299 6.931 12.6v33.969c0 5.302-2.768 9.947-6.931 12.601 2.318 1.478 5.062 2.345 8.015 2.345h.343c8.254 0 14.946-6.691 14.946-14.946v-33.968c0-8.255-6.692-14.946-14.946-14.946z" fill="#62dbfb"/><path d="m216.963 387.452h-.343c-2.952 0-5.697.868-8.015 2.345 4.162 2.653 6.931 7.299 6.931 12.6v87.157c0 5.302-2.768 9.947-6.931 12.6 2.318 1.478 5.062 2.345 8.015 2.345h.343c8.254 0 14.946-6.691 14.946-14.946v-87.157c0-8.253-6.692-14.944-14.946-14.944z" fill="#fac600"/><path d="m373.805 367.981h-.343c-2.952 0-5.697.867-8.015 2.345 4.162 2.653 6.931 7.299 6.931 12.601v54.199c0 5.302-2.768 9.947-6.931 12.6 2.318 1.478 5.062 2.345 8.015 2.345h.343c8.254 0 14.946-6.691 14.946-14.946v-54.199c-.001-8.254-6.692-14.945-14.946-14.945z" fill="#fac600"/><path d="m295.384 215.906h-.343c-2.952 0-5.697.867-8.015 2.345 4.162 2.653 6.931 7.299 6.931 12.601v176.291c0 5.302-2.768 9.947-6.931 12.6 2.318 1.478 5.062 2.345 8.015 2.345h.343c8.254 0 14.946-6.691 14.946-14.946v-176.29c0-8.254-6.692-14.946-14.946-14.946z" fill="#62dbfb"/></g><g><path d="m138.542 357.714h-.344c-12.376 0-22.445 10.069-22.445 22.446v33.969c0 12.376 10.069 22.446 22.445 22.446 11.904.309 22.779-10.011 22.789-22.446v-33.969c.001-12.377-10.068-22.446-22.445-22.446zm7.446 56.414c.04 3.128-3.064 7.48-7.789 7.446-4.105 0-7.445-3.34-7.445-7.446v-33.968c0-4.105 3.34-7.446 7.445-7.446 3.254-.145 7.502 2.655 7.789 7.446z"/><path d="m216.963 301.2h-.344c-12.376 0-22.445 10.069-22.445 22.445v14.751c0 12.376 10.069 22.445 22.445 22.445 11.904.309 22.779-10.01 22.789-22.445v-14.751c.001-12.376-10.068-22.445-22.445-22.445zm7.446 37.196c.04 3.128-3.064 7.479-7.789 7.445-4.105 0-7.445-3.34-7.445-7.445v-14.751c0-4.105 3.34-7.445 7.445-7.445 3.254-.145 7.502 2.655 7.789 7.445z"/><path d="m216.963 379.952h-.344c-12.376 0-22.445 10.069-22.445 22.445v12.324c0 4.142 3.358 7.5 7.5 7.5s7.5-3.358 7.5-7.5v-12.324c0-4.105 3.34-7.445 7.445-7.445 3.254-.145 7.502 2.655 7.789 7.445v87.157c0 4.105-3.34 7.446-7.445 7.446-3.254.145-7.502-2.655-7.789-7.446v-39.485c0-4.142-3.358-7.5-7.5-7.5s-7.5 3.358-7.5 7.5v39.485c-.116 11.919 10.341 22.616 22.789 22.446 12.376 0 22.445-10.069 22.445-22.446v-87.157c.001-12.376-10.068-22.445-22.445-22.445z"/><path d="m295.384 449.574h-.343c-12.376 0-22.445 10.069-22.445 22.446v4.508c0 12.376 10.069 22.445 22.445 22.445 11.904.309 22.779-10.01 22.789-22.445v-4.508c0-12.376-10.07-22.446-22.446-22.446zm7.446 26.954c.04 3.128-3.064 7.479-7.789 7.445-4.105 0-7.445-3.34-7.445-7.445v-4.508c0-4.105 3.34-7.446 7.445-7.446 3.253-.145 7.502 2.655 7.789 7.446z"/><path d="m373.805 360.481h-.343c-12.376 0-22.445 10.069-22.445 22.445v54.199c0 12.376 10.069 22.446 22.445 22.446 11.904.309 22.779-10.011 22.789-22.446v-54.199c-.001-12.376-10.07-22.445-22.446-22.445zm7.445 76.644c.04 3.128-3.064 7.479-7.789 7.446-4.105 0-7.445-3.34-7.445-7.446v-54.199c0-4.105 3.34-7.445 7.445-7.445 3.253-.145 7.502 2.655 7.789 7.445z"/><path d="m441.356 279.148-133.459-248.138c-10.397-19.343-29.72-30.935-51.69-31.01-.072 0-.141 0-.212 0-22.046 0-41.431 11.581-51.878 31.008l-133.471 248.139c-8.994 16.717-6.923 36.069 5.404 50.505 11.991 14.127 32.744 20.289 50.666 12.458l120.793-78.442c6.272-2.936 8.988-5.07 16.777-.127l8.309 5.395v138.207c0 12.376 10.069 22.446 22.445 22.446 11.904.309 22.779-10.011 22.789-22.446v-176.291c.116-11.918-10.341-22.615-22.789-22.445-12.376 0-22.445 10.069-22.445 22.445v20.194l-41.205-26.755c-5.762-3.846-11-5.579-16.513-5.437-4.967.107-10.082 1.743-16.097 5.149-3.604 2.042-4.872 6.618-2.831 10.222 2.042 3.604 6.619 4.871 10.222 2.831 3.771-2.135 6.639-3.154 9.052-3.206 1.552-.042 3.855.259 7.918 2.97l19.327 12.55c-.87.463.065-.083-2.934 1.591l-120.195 78.054c-13.928 4.48-25.566-1.704-31.884-9.103-6.438-7.54-10.766-20.341-3.601-33.658l133.473-248.141c7.788-14.482 22.235-23.113 38.671-23.113h.158c16.377.056 30.78 8.695 38.53 23.113l133.461 248.141c7.165 13.317 2.836 26.119-3.603 33.66-6.317 7.398-17.953 13.581-31.873 9.1l-48.521-31.506c-3.474-2.255-8.119-1.269-10.375 2.206-2.256 3.474-1.269 8.119 2.206 10.375l49.316 32.022c16.108 7.269 38.27 2.662 50.653-12.455 12.329-14.437 14.401-33.791 5.406-50.508zm-153.761-48.296c0-4.105 3.34-7.445 7.445-7.445 3.253-.145 7.502 2.655 7.789 7.445v176.292c.04 3.128-3.064 7.479-7.789 7.446-4.105 0-7.445-3.34-7.445-7.446z"/></g></g></svg>

<?xml version="1.0" encoding="UTF-8" standalone="no"?>
<!DOCTYPE svg PUBLIC "-//W3C//DTD SVG 1.1//EN" "http://www.w3.org/Graphics/SVG/1.1/DTD/svg11.dtd">
<svg version="1.1" xmlns="http://www.w3.org/2000/svg" xmlns:xlink="http://www.w3.org/1999/xlink" preserveAspectRatio="xMidYMid meet" viewBox="0 0 640 640" width="70" height="70"><defs><path d="M138.2 429.07C129.94 429.07 123.25 422.38 123.25 414.13C123.25 410.73 123.25 383.55 123.25 380.16C123.25 371.9 129.94 365.21 138.2 365.21C138.23 365.21 138.51 365.21 138.54 365.21C146.8 365.21 153.49 371.9 153.49 380.16C153.49 383.55 153.49 410.73 153.49 414.13C153.49 422.38 146.8 429.07 138.54 429.07C138.47 429.07 138.23 429.07 138.2 429.07Z" id="b1tI0KrBB"></path><path d="M216.62 353.34C208.36 353.34 201.67 346.65 201.67 338.39C201.67 336.92 201.67 325.12 201.67 323.64C201.67 315.39 208.36 308.7 216.62 308.7C216.65 308.7 216.93 308.7 216.96 308.7C225.22 308.7 231.91 315.39 231.91 323.64C231.91 325.12 231.91 336.92 231.91 338.39C231.91 346.65 225.22 353.34 216.96 353.34C216.89 353.34 216.65 353.34 216.62 353.34Z" id="apHPhIxel"></path><path d="M216.62 504.5C208.36 504.5 201.67 497.81 201.67 489.55C201.67 480.84 201.67 411.11 201.67 402.39C201.67 394.14 208.36 387.45 216.62 387.45C216.65 387.45 216.93 387.45 216.96 387.45C225.22 387.45 231.91 394.14 231.91 402.39C231.91 411.11 231.91 480.84 231.91 489.55C231.91 497.81 225.22 504.5 216.96 504.5C216.89 504.5 216.65 504.5 216.62 504.5Z" id="b1jXR3ojZA"></path><path d="M295.04 491.47C286.79 491.47 280.09 484.78 280.09 476.52C280.09 476.07 280.09 472.47 280.09 472.02C280.09 463.76 286.78 457.07 295.04 457.07C295.07 457.07 295.35 457.07 295.38 457.07C303.64 457.07 310.33 463.76 310.33 472.02C310.33 472.47 310.33 476.07 310.33 476.52C310.33 484.78 303.64 491.47 295.38 491.47C295.31 491.47 295.07 491.47 295.04 491.47Z" id="g3mjp5J3PQ"></path><path d="M216.62 308.7C214.08 308.7 211.7 309.33 209.6 310.45C214.32 312.96 217.53 317.93 217.53 323.64C217.53 325.12 217.53 336.92 217.53 338.39C217.53 344.11 214.32 349.07 209.6 351.59C211.7 352.7 214.08 353.34 216.62 353.34C216.65 353.34 216.93 353.34 216.96 353.34C225.22 353.34 231.91 346.65 231.91 338.39C231.91 336.92 231.91 325.12 231.91 323.64C231.91 315.39 225.22 308.7 216.96 308.7C216.89 308.7 216.65 308.7 216.62 308.7Z" id="b5dpiFjhGb"></path><path d="M295.04 457.07C292.5 457.07 290.12 457.71 288.02 458.82C292.74 461.34 295.96 466.3 295.96 472.02C295.96 472.47 295.96 476.07 295.96 476.52C295.96 482.24 292.74 487.21 288.02 489.72C290.12 490.83 292.5 491.47 295.04 491.47C295.07 491.47 295.35 491.47 295.38 491.47C303.64 491.47 310.33 484.78 310.33 476.52C310.33 476.07 310.33 472.47 310.33 472.02C310.33 463.76 303.64 457.07 295.38 457.07C295.31 457.07 295.07 457.07 295.04 457.07Z" id="aht0akYU"></path><path d="M373.46 452.07C365.21 452.07 358.51 445.38 358.51 437.12C358.51 431.7 358.51 388.34 358.51 382.92C358.51 374.67 365.2 367.98 373.46 367.98C373.49 367.98 373.77 367.98 373.8 367.98C382.06 367.98 388.75 374.67 388.75 382.92C388.75 388.34 388.75 431.7 388.75 437.12C388.75 445.38 382.06 452.07 373.8 452.07C373.73 452.07 373.49 452.07 373.46 452.07Z" id="b4rucYiudY"></path><path d="M310.33 284.49L280.09 264.86C273.06 260.29 269.15 257.76 268.37 257.25C268.11 257.08 267.85 256.91 267.6 256.75C263.62 254.22 260.02 252.98 256.18 253.07C252.42 253.15 248.42 254.53 243.62 257.25C231.52 265.11 134.73 327.96 122.63 335.82C105.43 341.84 89.07 334.91 80 322.57C72.04 311.75 69.68 296.77 77.25 282.7C90.6 257.89 197.37 59.37 210.72 34.56C220.46 16.45 238.33 7.44 256.18 7.5C273.91 7.56 291.62 16.57 301.29 34.56C314.64 59.37 421.4 257.89 434.75 282.7C450.95 312.81 421.66 347.11 389.38 335.82C378.84 328.98 352.49 311.87 310.33 284.49Z" id="a1Di2booIB"></path><path d="M267.6 256.75C263.62 254.22 260.02 252.98 256.18 253.07C252.42 253.15 248.42 254.53 243.62 257.25C231.52 265.11 134.73 327.96 122.63 335.82C105.43 341.84 89.07 334.91 80 322.57C85.88 323.56 92.23 323.14 98.69 320.88C109.75 313.7 198.19 256.25 209.25 249.07C212.68 246.85 213.26 242.07 210.48 239.09C209.68 238.23 203.28 231.38 202.48 230.53C207.28 227.81 211.28 226.43 215.04 226.35C219.12 226.25 222.94 227.67 227.23 230.53C235.3 235.77 259.53 251.5 267.6 256.75Z" id="a21faNGtm"></path><path d="M301.28 34.56C291.61 16.57 273.91 7.56 256.18 7.5C251.27 7.48 246.37 8.18 241.63 9.53C254.13 13.11 265.47 21.43 272.52 34.56C285.87 59.37 392.64 257.88 405.99 282.69C417.28 303.68 406.47 326.69 387.96 334.9C388.1 334.99 389.23 335.73 389.37 335.82C421.66 347.1 450.95 312.81 434.75 282.69C408.06 233.07 314.63 59.37 301.28 34.56Z" id="i1cKrR193Q"></path><path d="M295.04 422.09C286.79 422.09 280.09 415.4 280.09 407.14C280.09 389.51 280.09 248.48 280.09 230.85C280.09 222.6 286.78 215.9 295.04 215.9C295.07 215.9 295.35 215.9 295.38 215.9C303.64 215.9 310.33 222.6 310.33 230.85C310.33 248.48 310.33 389.51 310.33 407.14C310.33 415.39 303.64 422.09 295.38 422.09C295.31 422.09 295.07 422.09 295.04 422.09Z" id="cqKn1sc1E"></path><path d="M138.2 365.21C135.25 365.21 132.5 366.08 130.18 367.56C134.35 370.21 137.11 374.86 137.11 380.16C137.11 383.55 137.11 410.73 137.11 414.13C137.11 419.43 134.35 424.07 130.18 426.73C132.5 428.2 135.25 429.07 138.2 429.07C138.23 429.07 138.51 429.07 138.54 429.07C146.8 429.07 153.49 422.38 153.49 414.13C153.49 410.73 153.49 383.55 153.49 380.16C153.49 371.9 146.8 365.21 138.54 365.21C138.47 365.21 138.23 365.21 138.2 365.21Z" id="c2nGUdtLa9"></path><path d="M216.62 387.45C213.67 387.45 210.92 388.32 208.6 389.79C212.77 392.45 215.53 397.09 215.53 402.39C215.53 411.11 215.53 480.84 215.53 489.55C215.53 494.85 212.77 499.5 208.6 502.15C210.92 503.63 213.67 504.5 216.62 504.5C216.65 504.5 216.93 504.5 216.96 504.5C225.22 504.5 231.91 497.81 231.91 489.55C231.91 480.83 231.91 411.11 231.91 402.39C231.91 394.14 225.22 387.45 216.96 387.45C216.89 387.45 216.65 387.45 216.62 387.45Z" id="b1y03YwmNh"></path><path d="M373.46 367.98C370.51 367.98 367.76 368.85 365.44 370.32C369.61 372.98 372.38 377.62 372.38 382.92C372.38 388.34 372.38 431.7 372.38 437.12C372.38 442.43 369.61 447.07 365.44 449.72C367.76 451.2 370.51 452.07 373.46 452.07C373.49 452.07 373.77 452.07 373.8 452.07C382.06 452.07 388.75 445.38 388.75 437.12C388.75 431.7 388.75 388.34 388.75 382.92C388.75 374.67 382.06 367.98 373.8 367.98C373.73 367.98 373.49 367.98 373.46 367.98Z" id="fbTXs1TgC"></path><path d="M295.04 215.9C292.09 215.9 289.34 216.77 287.02 218.25C291.19 220.9 293.96 225.55 293.96 230.85C293.96 248.48 293.96 389.51 293.96 407.14C293.96 412.44 291.19 417.09 287.02 419.74C289.34 421.22 292.09 422.09 295.04 422.09C295.07 422.09 295.35 422.09 295.38 422.09C303.64 422.09 310.33 415.39 310.33 407.14C310.33 389.51 310.33 248.48 310.33 230.85C310.33 222.6 303.64 215.9 295.38 215.9C295.31 215.9 295.07 215.9 295.04 215.9Z" id="dQ0qloNsA"></path><path d="M138.2 357.71C125.82 357.71 115.75 367.78 115.75 380.16C115.75 383.55 115.75 410.73 115.75 414.13C115.75 426.5 125.82 436.57 138.2 436.57C150.1 436.88 160.98 426.56 160.99 414.13C160.99 410.73 160.99 383.55 160.99 380.16C160.99 367.78 150.92 357.71 138.54 357.71C138.47 357.71 138.23 357.71 138.2 357.71ZM145.99 414.13C146.03 417.25 142.92 421.61 138.2 421.57C134.09 421.57 130.75 418.23 130.75 414.13C130.75 410.73 130.75 383.55 130.75 380.16C130.75 376.05 134.09 372.71 138.2 372.71C141.45 372.57 145.7 375.37 145.99 380.16C145.99 386.95 145.99 407.33 145.99 414.13Z" id="aJDTRVk13"></path><path d="M216.62 301.2C204.24 301.2 194.17 311.27 194.17 323.64C194.17 325.12 194.17 336.92 194.17 338.39C194.17 350.77 204.24 360.84 216.62 360.84C228.52 361.15 239.4 350.83 239.41 338.39C239.41 336.92 239.41 325.12 239.41 323.64C239.41 311.27 229.34 301.2 216.96 301.2C216.89 301.2 216.65 301.2 216.62 301.2ZM224.41 338.39C224.45 341.52 221.34 345.87 216.62 345.84C212.51 345.84 209.17 342.5 209.17 338.39C209.17 336.92 209.17 325.12 209.17 323.64C209.17 319.54 212.51 316.2 216.62 316.2C219.87 316.05 224.12 318.85 224.41 323.64C224.41 326.59 224.41 335.44 224.41 338.39Z" id="h1tvHgypNG"></path><path d="M216.62 379.95C204.24 379.95 194.17 390.02 194.17 402.39C194.17 403.63 194.17 413.49 194.17 414.72C194.17 418.86 197.53 422.22 201.67 422.22C205.81 422.22 209.17 418.86 209.17 414.72C209.17 413.49 209.17 403.63 209.17 402.39C209.17 398.29 212.51 394.95 216.62 394.95C219.87 394.8 224.12 397.6 224.41 402.39C224.41 411.11 224.41 480.84 224.41 489.55C224.41 493.66 221.07 497 216.96 497C213.71 497.14 209.46 494.34 209.17 489.55C209.17 485.6 209.17 454.01 209.17 450.07C209.17 445.92 205.81 442.57 201.67 442.57C197.53 442.57 194.17 445.92 194.17 450.07C194.17 454.01 194.17 485.6 194.17 489.55C194.06 501.47 204.51 512.17 216.96 512C229.34 512 239.41 501.93 239.41 489.55C239.41 480.84 239.41 411.11 239.41 402.39C239.41 390.02 229.34 379.95 216.96 379.95C216.89 379.95 216.65 379.95 216.62 379.95Z" id="a2HvojEQED"></path><path d="M295.04 449.57C282.66 449.57 272.59 459.64 272.59 472.02C272.59 472.47 272.59 476.07 272.59 476.53C272.59 488.9 282.66 498.97 295.04 498.97C306.94 499.28 317.82 488.96 317.83 476.53C317.83 476.07 317.83 472.47 317.83 472.02C317.83 459.64 307.76 449.57 295.38 449.57C295.31 449.57 295.07 449.57 295.04 449.57ZM302.83 476.53C302.87 479.65 299.76 484 295.04 483.97C290.93 483.97 287.59 480.63 287.59 476.53C287.59 476.07 287.59 472.47 287.59 472.02C287.59 467.91 290.93 464.57 295.04 464.57C298.29 464.43 302.54 467.23 302.83 472.02C302.83 472.92 302.83 475.62 302.83 476.53Z" id="a9nC5YQWR"></path><path d="M373.46 360.48C361.08 360.48 351.01 370.55 351.01 382.92C351.01 388.34 351.01 431.7 351.01 437.12C351.01 449.5 361.08 459.57 373.46 459.57C385.36 459.88 396.24 449.56 396.25 437.12C396.25 431.7 396.25 388.34 396.25 382.92C396.25 370.55 386.18 360.48 373.8 360.48C373.73 360.48 373.49 360.48 373.46 360.48ZM381.25 437.12C381.29 440.25 378.18 444.6 373.46 444.57C369.35 444.57 366.01 441.23 366.01 437.12C366.01 431.7 366.01 388.34 366.01 382.92C366.01 378.82 369.35 375.48 373.46 375.48C376.71 375.33 380.96 378.13 381.25 382.92C381.25 393.76 381.25 426.28 381.25 437.12Z" id="b2kbcAq48u"></path><path d="M307.9 31.01C297.5 11.67 278.18 0.07 256.21 0C256.13 0 256.06 0 255.99 0C233.95 0 214.56 11.58 204.12 31.01C190.77 55.82 83.99 254.33 70.65 279.15C61.65 295.86 63.72 315.21 76.05 329.65C88.04 343.78 108.79 349.94 126.72 342.11C138.79 334.26 235.43 271.51 247.51 263.67C253.78 260.73 256.5 258.6 264.28 263.54C264.84 263.9 267.61 265.7 272.59 268.93C272.59 351.86 272.59 397.93 272.59 407.14C272.59 419.52 282.66 429.59 295.04 429.59C306.94 429.9 317.82 419.58 317.83 407.14C317.83 389.51 317.83 248.48 317.83 230.85C317.94 218.93 307.49 208.24 295.04 208.41C282.66 208.41 272.59 218.47 272.59 230.85C272.59 232.2 272.59 238.93 272.59 251.04C247.87 234.99 234.14 226.07 231.39 224.29C225.63 220.44 220.39 218.71 214.88 218.85C209.91 218.96 204.79 220.6 198.78 224C195.17 226.04 193.91 230.62 195.95 234.22C197.99 237.83 202.57 239.09 206.17 237.05C209.94 234.92 212.81 233.9 215.22 233.85C216.77 233.81 219.08 234.11 223.14 236.82C225.07 238.07 240.53 248.11 242.47 249.37C241.6 249.83 242.53 249.29 239.53 250.96C227.51 258.76 131.36 321.21 119.34 329.01C105.41 333.49 93.77 327.31 87.45 319.91C81.02 312.37 76.69 299.57 83.85 286.25C97.2 261.44 203.98 62.93 217.33 38.11C225.11 23.63 239.56 15 256 15C256.01 15 256.14 15 256.15 15C272.53 15.06 286.93 23.69 294.68 38.11C308.03 62.93 414.8 261.44 428.14 286.25C435.31 299.57 430.98 312.37 424.54 319.91C418.22 327.31 406.59 333.49 392.67 329.01C387.82 325.86 349 300.66 344.15 297.51C340.67 295.25 336.03 296.24 333.77 299.71C331.52 303.19 332.5 307.83 335.98 310.09C340.91 313.29 380.36 338.91 385.29 342.11C401.4 349.38 423.56 344.77 435.95 329.65C448.28 315.22 450.35 295.86 441.35 279.15C414.66 229.52 321.24 55.82 307.9 31.01ZM287.59 230.85C287.59 226.75 290.93 223.41 295.04 223.41C298.29 223.26 302.54 226.06 302.83 230.85C302.83 248.48 302.83 389.51 302.83 407.14C302.87 410.27 299.76 414.62 295.04 414.59C290.93 414.59 287.59 411.25 287.59 407.14C287.59 371.88 287.59 266.11 287.59 230.85Z" id="c8J5ToAFO5"></path></defs><g><g><g><use xlink:href="#b1tI0KrBB" opacity="1" fill="#c70101" fill-opacity="1"></use><g><use xlink:href="#b1tI0KrBB" opacity="1" fill-opacity="0" stroke="#000000" stroke-width="1" stroke-opacity="0"></use></g></g><g><use xlink:href="#apHPhIxel" opacity="1" fill="#c70101" fill-opacity="1"></use><g><use xlink:href="#apHPhIxel" opacity="1" fill-opacity="0" stroke="#000000" stroke-width="1" stroke-opacity="0"></use></g></g><g><use xlink:href="#b1jXR3ojZA" opacity="1" fill="#c70101" fill-opacity="1"></use><g><use xlink:href="#b1jXR3ojZA" opacity="1" fill-opacity="0" stroke="#000000" stroke-width="1" stroke-opacity="0"></use></g></g><g><use xlink:href="#g3mjp5J3PQ" opacity="1" fill="#c70101" fill-opacity="1"></use><g><use xlink:href="#g3mjp5J3PQ" opacity="1" fill-opacity="0" stroke="#000000" stroke-width="1" stroke-opacity="0"></use></g></g><g><use xlink:href="#b5dpiFjhGb" opacity="1" fill="#ff4848" fill-opacity="1"></use><g><use xlink:href="#b5dpiFjhGb" opacity="1" fill-opacity="0" stroke="#000000" stroke-width="1" stroke-opacity="0"></use></g></g><g><use xlink:href="#aht0akYU" opacity="1" fill="#ff4848" fill-opacity="1"></use><g><use xlink:href="#aht0akYU" opacity="1" fill-opacity="0" stroke="#000000" stroke-width="1" stroke-opacity="0"></use></g></g><g><use xlink:href="#b4rucYiudY" opacity="1" fill="#c70101" fill-opacity="1"></use><g><use xlink:href="#b4rucYiudY" opacity="1" fill-opacity="0" stroke="#000000" stroke-width="1" stroke-opacity="0"></use></g></g><g><use xlink:href="#a1Di2booIB" opacity="1" fill="#c70101" fill-opacity="1"></use><g><use xlink:href="#a1Di2booIB" opacity="1" fill-opacity="0" stroke="#000000" stroke-width="1" stroke-opacity="0"></use></g></g><g><use xlink:href="#a21faNGtm" opacity="1" fill="#c70101" fill-opacity="1"></use><g><use xlink:href="#a21faNGtm" opacity="1" fill-opacity="0" stroke="#000000" stroke-width="1" stroke-opacity="0"></use></g></g><g><use xlink:href="#i1cKrR193Q" opacity="1" fill="#ff4848" fill-opacity="1"></use><g><use xlink:href="#i1cKrR193Q" opacity="1" fill-opacity="0" stroke="#000000" stroke-width="1" stroke-opacity="0"></use></g></g><g><use xlink:href="#cqKn1sc1E" opacity="1" fill="#c70101" fill-opacity="1"></use><g><use xlink:href="#cqKn1sc1E" opacity="1" fill-opacity="0" stroke="#000000" stroke-width="1" stroke-opacity="0"></use></g></g><g><use xlink:href="#c2nGUdtLa9" opacity="1" fill="#ff4848" fill-opacity="1"></use><g><use xlink:href="#c2nGUdtLa9" opacity="1" fill-opacity="0" stroke="#000000" stroke-width="1" stroke-opacity="0"></use></g></g><g><use xlink:href="#b1y03YwmNh" opacity="1" fill="#ff4848" fill-opacity="1"></use><g><use xlink:href="#b1y03YwmNh" opacity="1" fill-opacity="0" stroke="#000000" stroke-width="1" stroke-opacity="0"></use></g></g><g><use xlink:href="#fbTXs1TgC" opacity="1" fill="#ff4848" fill-opacity="1"></use><g><use xlink:href="#fbTXs1TgC" opacity="1" fill-opacity="0" stroke="#000000" stroke-width="1" stroke-opacity="0"></use></g></g><g><use xlink:href="#dQ0qloNsA" opacity="1" fill="#ff4848" fill-opacity="1"></use><g><use xlink:href="#dQ0qloNsA" opacity="1" fill-opacity="0" stroke="#000000" stroke-width="1" stroke-opacity="0"></use></g></g><g><use xlink:href="#aJDTRVk13" opacity="1" fill="#000000" fill-opacity="1"></use><g><use xlink:href="#aJDTRVk13" opacity="1" fill-opacity="0" stroke="#000000" stroke-width="1" stroke-opacity="0"></use></g></g><g><use xlink:href="#h1tvHgypNG" opacity="1" fill="#000000" fill-opacity="1"></use><g><use xlink:href="#h1tvHgypNG" opacity="1" fill-opacity="0" stroke="#000000" stroke-width="1" stroke-opacity="0"></use></g></g><g><use xlink:href="#a2HvojEQED" opacity="1" fill="#000000" fill-opacity="1"></use><g><use xlink:href="#a2HvojEQED" opacity="1" fill-opacity="0" stroke="#000000" stroke-width="1" stroke-opacity="0"></use></g></g><g><use xlink:href="#a9nC5YQWR" opacity="1" fill="#000000" fill-opacity="1"></use><g><use xlink:href="#a9nC5YQWR" opacity="1" fill-opacity="0" stroke="#000000" stroke-width="1" stroke-opacity="0"></use></g></g><g><use xlink:href="#b2kbcAq48u" opacity="1" fill="#000000" fill-opacity="1"></use><g><use xlink:href="#b2kbcAq48u" opacity="1" fill-opacity="0" stroke="#000000" stroke-width="1" stroke-opacity="0"></use></g></g><g><use xlink:href="#c8J5ToAFO5" opacity="1" fill="#000000" fill-opacity="1"></use><g><use xlink:href="#c8J5ToAFO5" opacity="1" fill-opacity="0" stroke="#000000" stroke-width="1" stroke-opacity="0"></use></g></g></g></g></svg>
